X: 212
T: New Year's Song
B: O'Neill's 212
N: "With spirit"
N: "Collected by F.O'Neill"
Z: 1997 by John Chambers <jc@trillian.mit.edu>
M: 6/8
L: 1/8
K:G
D \
| D2G G2A | B2d d2B | c2A A2A | A3- A2A \
| B2A G2B | d2G G2A | {A}G2F D2D | D3- D2 ||
|| (B/c/) \
| d2d e2d | B2c d2B | c2c d2c | A3- A2(B/c/) \
| d2c B2G | A2G F2D | C2D G2G | G3- G2 ||


